X: 593
T:Tico-Tico No Fuba
T:Fun and Good For You
M:4/4
L:1/8
Q:230
C:Zequinha Abreu
S:Dermot
N:Posted to the woodenflute mailing list November 2002
Z:Craig Herrity
R:Rumba
K:DMinor
A^GA|BA2d- dA^GA|BA2^c- cA^GA|BA=ge ^cAGE|F4 zd^c=c|
Bd2g- gfdB|Ad2f- ffed|1eE^G=B dfed|^c4z:||2eA^ce agfe|
d4 zed^c| =cFAc FAc^c|d2B2 zed^c|=cEGB EGBc|d2A2 zfff|
feee eddd|d2B2 zeee|ecce dBBd|c2A2 zed^c|
=cFAc FAc^c|d2B2 zed^c|=cEGB EGBc|d2A2 zfe_e|
d^cde gfef| a=cfa c'=b_ba|gfed cBAG|F4 z||

